X: 5569
T: Busby
R: polka
M: 2/4
K: Dmajor
|:F/A/d/f/ a>f|eB B>d|ce A>c|dB AG|
F/A/d/f/ af|eB Bd|ce AB/c/|df dA:|
|:AF/G/ A/B/c/d/|cB B2|GE/F/ G/A/B/c/|BA F2|
AF/G/ A/B/c/d/|cB BB|GE/F/ G/A/B/c/|dc d2:|
|:F/G/^G/A/ B/A/G/=G/|F/G/^G/A/ B/A/G/=G/|Fg fe|Af ed|
F/G/^G/A/ B/A/G/=G/|F/G/^G/A/ B/A/G/=G/|Fg fe|Af d2:|
K:G
M:3/4
|:B2B B2 GBc|d4d GBc|d2d d2 GBd|g6 de|g2g gfga|g2f2 f4|
e2 ee2 ^def|e2d2 B3A|B2B B2 GBc|d4d GBc|d4d GBd|
g6 de|g2g2 gfga|b2g2 d3e|f2d2 c2A2|G2B2G4:|

